icons/svg/add_10.svg

<svg width="10" height="10" viewBox="0 0 10 10" xmlns="http://www.w3.org/2000/svg"><title>common-actions/add_10</title><path d="M4.5 4.5l0-1c0-.27614237.22385763-.5.5-.5.27614237 0 .5.22385763.5.5l0 1 1 0c.27614237 0 .5.22385763.5.5 0 .27614237-.22385763.5-.5.5l-1 0 0 1c0 .27614237-.22385763.5-.5.5-.27614237 0-.5-.22385763-.5-.5l0-1-1 0c-.27614237 0-.5-.22385763-.5-.5 0-.27614237.22385763-.5.5-.5l1 0zM5 10c-2.76142375 0-5-2.23857625-5-5 0-2.76142375 2.23857625-5 5-5 2.76142375 0 5 2.23857625 5 5 0 2.76142375-2.23857625 5-5 5zm0-1c2.209139 0 4-1.790861 4-4 0-2.209139-1.790861-4-4-4-2.209139 0-4 1.790861-4 4 0 2.209139 1.790861 4 4 4z" fill="#000" fill-rule="evenodd"/></svg>

<?xml version="1.0" encoding="UTF-8"?>
<svg width="10px" height="10px" viewBox="0 0 10 10" version="1.1" xmlns="http://www.w3.org/2000/svg" xmlns:xlink="http://www.w3.org/1999/xlink">
    <!-- Generator: Sketch 57.1 (83088) - https://sketch.com -->
    <title>common-actions/add_10</title>
    <desc>Created with Sketch.</desc>
    <g id="Icons-Webex" stroke="none" stroke-width="1" fill="none" fill-rule="evenodd">
        <g id="common-actions/add_10" fill="#000000">
            <path d="M5,0 C7.76142375,0 10,2.23857625 10,5 C10,7.76142375 7.76142375,10 5,10 C2.23857625,10 0,7.76142375 0,5 C0,2.23857625 2.23857625,0 5,0 Z M5,1 C2.790861,1 1,2.790861 1,5 C1,7.209139 2.790861,9 5,9 C7.209139,9 9,7.209139 9,5 C9,2.790861 7.209139,1 5,1 Z" id="Combined-Shape"></path>
            <path d="M5,3 C5.27614237,3 5.5,3.22385763 5.5,3.5 L5.5,4.5 L6.5,4.5 C6.77614237,4.5 7,4.72385763 7,5 C7,5.27614237 6.77614237,5.5 6.5,5.5 L5.5,5.5 L5.5,6.5 C5.5,6.77614237 5.27614237,7 5,7 C4.72385763,7 4.5,6.77614237 4.5,6.5 L4.5,5.5 L3.5,5.5 C3.22385763,5.5 3,5.27614237 3,5 C3,4.72385763 3.22385763,4.5 3.5,4.5 L4.5,4.5 L4.5,3.5 C4.5,3.22385763 4.72385763,3 5,3 Z" id="Combined-Shape"></path>
        </g>
    </g>
</svg>
